symbols/web/deselect/materialsymbolsoutlined/deselect_wght500fill1_48px.svg

<svg xmlns="http://www.w3.org/2000/svg" height="48" width="48"><path d="M42.5 47 30.25 34.75h-17v-17L1.5 6l2.25-2.25 41 41ZM8.85 42.55q-1.4-.05-2.4-1.025-1-.975-1-2.375h3.4Zm-3.4-7.8V30.5h3.4v4.25Zm0-8.65v-4.25h3.4v4.25Zm0-8.6v-4.25h3.4v4.25Zm7.8 25.05v-3.4h4.25v3.4Zm.2-33.7-.2-2.7 3.4-.7.85 2.45-3.4.95Zm3.2 22.5h10.2l-10.2-10.2Zm18.1-.85-3.4-3.4V16.65H20.9l-3.4-3.4h17.25ZM21.9 42.55v-3.4h4.25v3.4Zm0-33.7v-3.4h4.25v3.4Zm8.6 33.7v-3.4h4.25v3.4Zm0-33.7v-3.4h4.25v3.4Zm8.9 25.9-.25-3.6 2.5-.65.9 3.4-2.45.85Zm-.25-8.65v-4.25h3.4v4.25Zm0-8.6v-4.25h3.4v4.25Zm0-8.65v-3.4q1.4.05 2.4 1.025 1 .975 1 2.375Z"/></svg>

<svg xmlns="http://www.w3.org/2000/svg" height="48" width="48"><path d="M5.45 26.1V21.85H8.85V26.1ZM13.25 42.55V39.15H17.5V42.55ZM21.9 8.85V5.45H26.15V8.85ZM39.15 8.85V5.45Q40.55 5.5 41.55 6.475Q42.55 7.45 42.55 8.85ZM8.85 42.55Q7.45 42.5 6.45 41.525Q5.45 40.55 5.45 39.15H8.85ZM5.45 34.75V30.5H8.85V34.75ZM21.9 42.55V39.15H26.15V42.55ZM39.15 26.1V21.85H42.55V26.1ZM39.15 17.5V13.25H42.55V17.5ZM30.5 8.85V5.45H34.75V8.85ZM16.65 31.35H26.85L16.65 21.15ZM30.5 42.55V39.15H34.75V42.55ZM34.75 30.5 31.35 27.1V16.65H20.9L17.5 13.25H34.75ZM5.45 17.5V13.25H8.85V17.5ZM42.5 47 30.25 34.75H13.25V17.75L1.5 6L3.75 3.75L44.75 44.75ZM17.5 5.45V8.85H13.45L13.25 8.6V5.45ZM42.55 30.5V34.75H39.4L39.15 34.55V30.5Z"/></svg>
